X:1
T:Lord, Make Me to Know
T:Byrd
T:Lord, Make Me to Know
C:Byrd
%%score [ 1 2 3 4 ]
L:1/8
Q:1/2=84
M:4/2
K:C
V:1 treble nm="SOPRANO" snm="S."
V:2 treble nm="ALTO" snm="A."
V:3 treble-8 transpose=-12 nm="TENOR" snm="T."
V:4 bass nm="BASS" snm="B."
V:1
 z4 (A8 c4) | B4 B8 E4 | (^F3 G) A4 A4 ^G4 | A8 z4 A4 | =c8 z2 c2 B2 A2 | B8 z2 B2 A2 G2 | %6
w: Lord, _|make me to|know _ thy ways, O|Lord. O|Lord, teach me thy|paths, teach me thy|
 A12 A4 |1 ^G16 :|2 ^G8 z8 || z16 | z8 z4 =G4 | c6 c2 d4 d4 | (e6 d2 c4) e4 | (e6 d2) e4 c4 | %14
w: paths, O|Lord.|Lord.||O|lead me in thy|truth, _ _ and|teach _ me, for|
 (B6 A2) (^G2 A2) (B2 c2) | (B2 A2) A4 A4 ^G4 | A8 A8 |] %17
w: thou _ art _ the _|God _ of my sal-|va- tion.|
V:2
 C8 C4 C2 C2 | E12 E4 | (A,6 E2 D4) D4 | ^C16 | z4 E4 F8 | z2 F2 E2 D2 E8 | z2 E2 D2 C2 D4 D4 |1 %7
w: Lord, make me to|know thy|ways, _ _ O|Lord,|O Lord,|teach me thy paths,|teach me thy paths, O|
 E16 :|2 E8 z4 B,4 || C6 C2 D4 D4 | (E6 D2 C4) E4 | E4 A4 A4 B4 | (c4 G4 A4) A4 | B8 B4 A4 | %14
w: Lord.|Lord. O|lead me in thy|truth, _ _ O|lead me in thy|truth, _ _ and|teach me, for|
 ^G4 E2 E2 E4 E4 | E12 (E2 D2) | ^C8 C8 |] %17
w: thou art the God of|my sal- *|va- tion.|
V:3
 (A6 E2) E4 A2 A2 | A4 (^G2 ^F2) (G2 A2) (B2 c2) | (d4 A4) B8 | E16 | z16 | z8 B8 | %6
w: Lord, _ make me to|know, to _ know _ thy _|ways, _ O|Lord,||teach|
 c8 z2 c2 B2 A2 |1 B16 :|2 B8 z8 || z4 A6 A2 B4 | (c4 G12) | z2 c2 f6 d2 g4 | (c6 d2 e4) c4 | %13
w: me thy paths, O|Lord.|Lord.|Lead me in|truth, _|lead me in thy|truth _ _ and|
 e8 e8 | z4 e4 e4 e2 e2 | d2 e2 c4 B6 B2 | A8 A8 |] %17
w: teach me,|for thou art the|God _ of my sal-|va- tion.|
V:4
 A,,8 A,,4 A,,2 A,,2 | E,12 E,4 | (D,6 C,2 B,,4) B,,4 | A,,16 | A,16 | G,12 G,4 | F,12 F,4 |1 %7
w: Lord, make me to|know thy|ways _ _ O|Lord,|teach|me thy|paths, O|
 E,16 :|2 E,8 z4 E,4 || (E,2 C,2) F,6 D,2 G,4 | C,16 | z16 | z4 C4 A,4 A,4 | ^G,8 G,4 A,4 | %14
w: Lord.|Lord. O|lead _ me in thy|truth,||O lead and|teach me, for|
 E,4 E,2 E,2 E,4 E,4 | E,12 E,4 | A,,8 A,,8 |] %17
w: thou art the God of|my sal-|va- tion.|

